X:10
T:Crossing Ithan Creek
C: Sarah Gowan
M:3/4
K:G
|:"G"G2D2G2|"F"=FED3D|"G"B2G2B2|"Dm7"AG=F3F|
"G"G2D2G2|1"F"=FED3C|"G"D6-|"D"D4D2:|2"F"=D3CA,2|"G"G,6-|"Fine" G,6||
|:"G"G2B3B|dcB2B2|"Am7"AG AB AB|cBA3A|
"G"G2B3B|dcB2G2|"F"=F6|A6:|
"Em"B2e2B2|gfe2B2|"Am7"c3d cA|"Em"B4B2|"Am"c3d cA|"Em"B2A2G2|"B7"F6|B6|
"Em"B2e2B2|gfe2B2|"Am"c4A2|"Em"B4B2|"Am7"A3B AF|"B7"G2F2DF|"Em"E6|"D""D.C.al Fine"D6|]
